X: 36569
T: Shadow On The Hill
R: waltz
M: 3/4
K: Aminor
|:d2 B2 d2|g2 gf e2|d2 A2 c2|B2 BA G2|
c2 A2 A2|A4 G2|F2 FG AF|D2 E2 F2|
G4 d2|c2 A2 e2|c2 A2 g2|f2 fe d2|
g2 d2 B2|e2 ed cB|A6|A6||
|:B4 e2|e4 ef|g2 gf e2|f2 fe d2|
B4 e2|e4 GA|B2 BA G2|A6|
B4 e2|e4 ef|g2 gf e2|f2 fe d2|
B4 e2|e4 GA|B2 BA G2|A6:|

